X: 100375
T: ANNIE'S HORNPIPE
C: Composed by W.B. Laybourn, 1885
R: hornpipe
B: K\"ohler's Violin Repository, v.3, 1885 p.250 #2
F: http://www.archive.org/details/klersviolinrepos03rugg
Z: 2012 John Chambers <jc:trillian.mit.edu>
M: C|
L: 1/8
K: Dm
uD2 !segno!|\
D>AB>^c (d>B)A>^c | (d>e)f>g a2g>a | (b>a)g>b (a>g)f>a | gfed cBAD |
D>AB>^c (d>B)A>^c | (d>e)f>g a2g>a | (b>a)g>b (a>g)f>a | (f>d)e>^c d2 :|
|: vc>ud |\
(_e>d)c>e (d>c)B>d | (c>B)A>c B2c>B | AfBf cfdf | (e>g)b>g f2c>d |
(_e>d)c>e d2A>B | (c>B)A>c B2A>G | (F>A)B>c (d>c)B>A |\
[1 (B>A)B>^c d2 :|[2 (d>^c)d>_e (d>=c)B>A "_D.C."!segno!|]

%%sep 2 1 500

